packages/credential/logos/airdrop-white.svg

<svg width="24" height="24" viewBox="0 0 24 24" fill="none" xmlns="http://www.w3.org/2000/svg">
    <path
        d="M6.66667 4C5.95942 4 5.28115 4.28095 4.78105 4.78105C4.28095 5.28115 4 5.95942 4 6.66667V8.66667C4 9.37391 4.28095 10.0522 4.78105 10.5523C5.28115 11.0524 5.95942 11.3333 6.66667 11.3333H8.66667C9.37391 11.3333 10.0522 11.0524 10.5523 10.5523C11.0524 10.0522 11.3333 9.37391 11.3333 8.66667V6.66667C11.3333 5.95942 11.0524 5.28115 10.5523 4.78105C10.0522 4.28095 9.37391 4 8.66667 4H6.66667ZM15.3333 4C14.6261 4 13.9478 4.28095 13.4477 4.78105C12.9476 5.28115 12.6667 5.95942 12.6667 6.66667V8.66667C12.6667 9.37391 12.9476 10.0522 13.4477 10.5523C13.9478 11.0524 14.6261 11.3333 15.3333 11.3333H17.3333C18.0406 11.3333 18.7189 11.0524 19.219 10.5523C19.719 10.0522 20 9.37391 20 8.66667V6.66667C20 5.95942 19.719 5.28115 19.219 4.78105C18.7189 4.28095 18.0406 4 17.3333 4H15.3333ZM6.66667 12.6667C5.95942 12.6667 5.28115 12.9476 4.78105 13.4477C4.28095 13.9478 4 14.6261 4 15.3333V17.3333C4 18.0406 4.28095 18.7189 4.78105 19.219C5.28115 19.719 5.95942 20 6.66667 20H8.66667C9.37391 20 10.0522 19.719 10.5523 19.219C11.0524 18.7189 11.3333 18.0406 11.3333 17.3333V15.3333C11.3333 14.6261 11.0524 13.9478 10.5523 13.4477C10.0522 12.9476 9.37391 12.6667 8.66667 12.6667H6.66667ZM17 13.3333C17 13.1565 16.9298 12.987 16.8047 12.8619C16.6797 12.7369 16.5101 12.6667 16.3333 12.6667C16.1565 12.6667 15.987 12.7369 15.8619 12.8619C15.7369 12.987 15.6667 13.1565 15.6667 13.3333V15.6667H13.3333C13.1565 15.6667 12.987 15.7369 12.8619 15.8619C12.7369 15.987 12.6667 16.1565 12.6667 16.3333C12.6667 16.5101 12.7369 16.6797 12.8619 16.8047C12.987 16.9298 13.1565 17 13.3333 17H15.6667V19.3333C15.6667 19.5101 15.7369 19.6797 15.8619 19.8047C15.987 19.9298 16.1565 20 16.3333 20C16.5101 20 16.6797 19.9298 16.8047 19.8047C16.9298 19.6797 17 19.5101 17 19.3333V17H19.3333C19.5101 17 19.6797 16.9298 19.8047 16.8047C19.9298 16.6797 20 16.5101 20 16.3333C20 16.1565 19.9298 15.987 19.8047 15.8619C19.6797 15.7369 19.5101 15.6667 19.3333 15.6667H17V13.3333Z"
        fill="white" />
</svg>

<svg width="24" height="24" fill="none" xmlns="http://www.w3.org/2000/svg"><path d="M6.667 4A2.667 2.667 0 0 0 4 6.667v2a2.667 2.667 0 0 0 2.667 2.666h2a2.667 2.667 0 0 0 2.666-2.666v-2A2.667 2.667 0 0 0 8.667 4h-2zm8.666 0a2.667 2.667 0 0 0-2.666 2.667v2a2.667 2.667 0 0 0 2.666 2.666h2A2.667 2.667 0 0 0 20 8.667v-2A2.667 2.667 0 0 0 17.333 4h-2zm-8.666 8.667A2.667 2.667 0 0 0 4 15.333v2A2.667 2.667 0 0 0 6.667 20h2a2.667 2.667 0 0 0 2.666-2.667v-2a2.667 2.667 0 0 0-2.666-2.666h-2zM17 13.333a.667.667 0 1 0-1.333 0v2.334h-2.334a.667.667 0 0 0 0 1.333h2.334v2.333a.667.667 0 1 0 1.333 0V17h2.333a.666.666 0 1 0 0-1.333H17v-2.334z" fill="#fff"/></svg>
